X:51
T:Paddy Wack,aka. RDO.51
M:6/8
L:1/8
Q:3/8=120
C:untitled
S:Robert D. Owen MS,Indiana,1826.
R:.Jig
O:Indiana,USA
A:New Harmony
N:Untitled in MS
Z:vmp.Chris Partington
K:G
D|GBd gfg|edc BAG|GBd gfg|fddd2e/f/|!
gfg fdB|cec dBG|GBd cAc|BGGG3:|!
|:BBB ccc|dBGA2G|Bcd efg|fddd2(e/f/)|!
gfg fdB|cec dBG|GBd cAd|BGGG2:|

